assets/dino/soufflet/left_antennae_back.svg

<?xml version="1.0" encoding="UTF-8" standalone="no"?>
<svg xmlns:xlink="http://www.w3.org/1999/xlink" height="38.4px" width="113.8px" xmlns="http://www.w3.org/2000/svg">
  <g transform="matrix(1.0, 0.0, 0.0, 1.0, 56.9, 19.2)">
    <path d="M9.2 1.1 L11.0 -0.2 17.2 -0.4 Q17.55 -0.2 17.95 -0.15 16.65 -2.1 14.35 -2.45 L13.0 -2.8 20.8 -7.6 20.95 -7.7 23.35 -9.05 Q33.0 -14.45 39.15 -15.9 L44.5 -16.2 44.65 -16.1 Q45.5 -15.45 45.5 -14.85 45.5 -13.5 43.6 -13.75 42.25 -13.75 42.15 -13.1 42.05 -12.5 41.8 -12.5 L40.7 -12.8 Q39.2 -12.8 29.45 -5.35 26.15 -2.8 24.3 -2.0 23.35 -1.65 23.7 -0.55 24.05 0.55 23.6 1.4 23.15 2.2 21.7 1.8 L19.25 1.5 19.25 2.3 Q19.45 2.45 19.45 3.2 L19.15 4.2 18.0 4.4 17.95 4.4 Q17.35 4.35 15.55 3.4 L15.2 3.2 14.1 2.65 13.7 2.45 13.6 2.4 13.55 2.4 13.35 2.3 10.35 1.65 9.2 1.1" fill="#f2eaea" fill-rule="evenodd" stroke="none"/>
    <path d="M44.5 -16.2 L39.15 -15.9 Q33.0 -14.45 23.35 -9.05 L20.95 -7.7 20.8 -7.6 13.0 -2.8 14.35 -2.45 Q16.65 -2.1 17.95 -0.15 17.55 -0.2 17.2 -0.4 L11.0 -0.2 9.2 1.1 Q7.5 2.8 7.65 5.65 7.95 10.55 11.25 13.9 14.15 16.9 18.15 16.1 19.4 16.0 20.4 15.0 L21.8 13.3 22.95 9.5 22.95 8.95 22.9 8.2 24.05 8.15 24.35 8.5 24.35 10.0 25.05 9.1 25.85 8.15 Q28.15 5.3 30.55 2.75 L30.85 2.45 31.7 1.55 Q35.3 -2.3 38.85 -4.35 L39.15 -4.55 39.75 -4.85 39.85 -4.9 42.05 -6.0 42.1 -6.05 43.6 -6.8 42.95 -9.2 43.05 -9.2 43.45 -9.35 43.85 -9.35 44.2 -9.2 44.75 -7.9 44.95 -7.4 45.15 -7.8 45.8 -9.4 46.4 -9.45 46.25 -8.85 45.75 -6.75 45.9 -6.7 46.7 -6.6 48.0 -6.35 49.3 -6.0 49.4 -6.0 50.4 -5.8 50.45 -5.75 50.45 -5.7 50.35 -5.7 50.05 -5.75 49.95 -5.75 49.65 -5.75 49.15 -5.8 46.65 -5.65 46.35 -5.6 Q42.5 -4.95 39.15 -2.25 35.25 0.25 30.55 4.75 L25.2 12.9 Q22.45 16.75 20.0 17.5 L18.75 17.85 16.55 18.2 14.5 17.85 Q10.85 16.9 8.7 13.55 7.55 11.7 6.6 9.5 4.55 4.7 7.15 0.2 8.1 -1.4 9.7 -2.3 L17.85 -7.6 23.35 -10.85 Q26.9 -12.75 29.9 -13.8 31.5 -14.35 37.1 -16.85 L39.15 -17.45 Q42.4 -18.45 45.9 -18.15 L48.0 -18.1 Q50.75 -16.35 52.85 -14.0 L55.9 -9.85 55.6 -9.35 55.15 -9.55 54.4 -10.0 Q53.2 -10.9 51.8 -12.6 49.55 -15.3 45.75 -16.0 L44.5 -16.2 M11.4 2.75 L12.1 3.05 Q15.3 5.8 17.8 9.45 19.5 11.8 19.0 14.6 L18.7 15.15 Q16.8 15.3 15.25 14.0 10.45 9.8 10.65 3.8 L9.15 5.0 9.45 6.65 9.65 8.9 Q8.55 7.25 8.4 5.05 8.3 3.75 9.1 2.7 L9.95 2.5 10.7 2.5 Q11.05 2.55 11.4 2.75" fill="#a36a6a" fill-rule="evenodd" stroke="none"/>
    <path d="M 17.95,4.4 H 18 l 1.15,-0.2 0.3,-1 c 0,-0.5 -0.06667,-0.8 -0.2,-0.9 V 1.5 l 2.45,0.3 c 0.966667,0.2666667 1.6,0.1333333 1.9,-0.4 0.3,-0.56666667 0.333333,-1.21666667 0.1,-1.95 -0.233333,-0.7333333 -0.03333,-1.2166667 0.6,-1.45 1.233333,-0.5333333 2.95,-1.65 5.15,-3.35 6.5,-4.966667 10.25,-7.45 11.25,-7.45 l 1.1,0.3 c 0.166667,0 0.283333,-0.2 0.35,-0.6 0.06667,-0.433333 0.55,-0.65 1.45,-0.65 1.266667,0.166667 1.9,-0.2 1.9,-1.1 0,-0.4 -0.283333,-0.816667 -0.85,-1.25 l -0.15,-0.1 1.25,0.2 c 2.533333,0.466667 4.55,1.6 6.05,3.4 0.933333,1.133333 1.8,2 2.6,2.6 l 0.75,0.45 c -0.166667,0.5666667 -0.533333,1.2 -1.1,1.9 -0.966667,1.1333333 -2.166667,1.7666667 -3.6,1.9 l -0.05,-0.05 0.15,-0.3 -0.3,-0.45 -1.1,-0.65 c 0.233333,-1.0666667 0.5,-1.7666667 0.8,-2.1 H 49.6 c -0.4,0 -0.883333,0.2333333 -1.45,0.7 l -1.05,0.8 0.3,-1.8 c 0.06667,-0.8 -0.133333,-1.2 -0.6,-1.2 -0.5,0 -0.816667,0.233333 -0.95,0.7 L 45.3,-9 43,-11.3 c -1.066667,-0.9 -1.6,-0.816667 -1.6,0.25 l 0.15,2.8 c 0,0.6666667 -0.616667,1.1833333 -1.85,1.55 l -2.5,0.8 -3.55,2.7 c -0.666667,0.3 -1.666667,0.5666667 -3,0.8 l -2.6,0.75 c -1,0.5 -1.766667,1.15 -2.3,1.95 l -1.7,2.55 C 23.383333,2.5833333 22.883333,2.7666667 22.55,3.4 22.316667,3.7666667 22.2,4.1333333 22.2,4.5 l 0.3,2.3 -0.3,0.85 c -0.466667,0.7333333 -1.133333,1.0333333 -2,0.9 L 19.95,8.5 20.25,9 19.05,6.7 C 18.75,5.8 18.383333,5.0333333 17.95,4.4 m 27.95,-11.1 -0.15,-0.05 0.5,-2.1 -0.15,0.8 0.05,-0.1 0.05,0.05 -0.3,1.2 v 0.2 m -0.75,-1.1 -0.2,0.4 -0.2,-0.5 0.4,0.1 m -2.1,-1.4 h -0.1 L 43,-9.25 43.05,-9.2 m -3.3,4.35 -0.6,0.3 h -0.1 l 0.7,-0.3 M 21.55,10.8 22.1,10.5 21.6,10.9 21.55,10.8 M 20.6,9.55 20.75,9.5 20.7,9.6 v 0.05 l -0.1,-0.1" fill="#e0cbcb" fill-rule="evenodd" stroke="none"/>
    <path d="M9.2 1.1 L10.35 1.65 13.35 2.3 13.55 2.4 13.6 2.4 13.7 2.45 14.1 2.65 15.2 3.2 15.55 3.4 Q17.35 4.35 17.95 4.4 18.6 5.35 19.05 6.7 L20.25 9.0 19.95 8.5 20.2 8.55 Q21.5 8.75 22.2 7.65 L22.5 6.8 22.2 4.5 Q22.2 3.95 22.55 3.4 23.05 2.45 24.05 2.85 L25.75 0.3 Q26.55 -0.9 28.05 -1.65 L30.65 -2.4 Q32.65 -2.75 33.65 -3.2 L37.2 -5.9 39.7 -6.7 Q41.55 -7.25 41.55 -8.25 L41.4 -11.05 Q41.4 -12.65 43.0 -11.3 L45.3 -9.0 45.85 -10.1 Q46.05 -10.8 46.8 -10.8 47.5 -10.8 47.4 -9.6 L47.1 -7.8 48.15 -8.6 Q49.0 -9.3 49.6 -9.3 L49.95 -9.3 Q49.5 -8.8 49.15 -7.2 L50.25 -6.55 50.55 -6.1 50.4 -5.8 49.4 -6.0 49.3 -6.0 48.0 -6.35 46.7 -6.6 45.9 -6.7 45.9 -6.9 46.2 -8.1 46.15 -8.15 46.1 -8.05 46.25 -8.85 46.4 -9.45 45.8 -9.4 45.15 -7.8 44.75 -7.9 44.2 -9.2 43.85 -9.35 43.45 -9.35 43.05 -9.2 43.0 -9.25 42.95 -9.2 43.6 -6.8 42.1 -6.05 42.05 -6.0 39.85 -4.9 39.75 -4.85 39.05 -4.55 39.15 -4.55 38.85 -4.35 Q35.3 -2.3 31.7 1.55 L30.85 2.45 30.55 2.75 Q28.15 5.3 25.85 8.15 L25.05 9.1 24.35 10.0 24.35 8.5 24.05 8.15 22.9 8.2 22.95 8.95 22.95 9.5 21.8 13.3 20.4 15.0 Q19.4 16.0 18.15 16.1 14.15 16.9 11.25 13.9 7.95 10.55 7.65 5.65 7.5 2.8 9.2 1.1 M46.35 -5.6 L46.65 -5.65 49.15 -5.8 49.65 -5.75 49.95 -5.75 50.05 -5.75 50.35 -5.7 50.4 -5.5 Q50.4 -5.15 48.3 -2.9 46.15 -0.6 45.75 -0.6 44.4 -0.6 44.4 -2.4 44.4 -4.15 45.4 -5.4 L46.35 -5.6 M20.6 9.55 L20.7 9.65 20.7 9.6 20.75 9.5 20.6 9.55 M21.55 10.8 L21.6 10.9 22.1 10.5 21.55 10.8 M11.4 2.75 Q11.05 2.55 10.7 2.5 L9.95 2.5 9.1 2.7 Q8.3 3.75 8.4 5.05 8.55 7.25 9.65 8.9 L9.45 6.65 9.15 5.0 10.65 3.8 Q10.45 9.8 15.25 14.0 16.8 15.3 18.7 15.15 L19.0 14.6 Q19.5 11.8 17.8 9.45 15.3 5.8 12.1 3.05 L11.4 2.75" fill="#cca9a9" fill-rule="evenodd" stroke="none"/>
    <path d="M50.45 -5.7 L50.45 -5.75 50.6 -5.7 50.45 -5.7" fill="#666666" fill-rule="evenodd" stroke="none"/>
  </g>
</svg>

<?xml version="1.0" encoding="UTF-8" standalone="no"?>
<svg xmlns:xlink="http://www.w3.org/1999/xlink" height="38.4px" width="113.8px" xmlns="http://www.w3.org/2000/svg">
  <g transform="matrix(1.0, 0.0, 0.0, 1.0, 56.9, 19.2)">
    <path d="M9.2 1.1 L11.0 -0.2 17.2 -0.4 Q17.55 -0.2 17.95 -0.15 16.65 -2.1 14.35 -2.45 L13.0 -2.8 20.8 -7.6 20.95 -7.7 23.35 -9.05 Q33.0 -14.45 39.15 -15.9 L44.5 -16.2 44.65 -16.1 Q45.5 -15.45 45.5 -14.85 45.5 -13.5 43.6 -13.75 42.25 -13.75 42.15 -13.1 42.05 -12.5 41.8 -12.5 L40.7 -12.8 Q39.2 -12.8 29.45 -5.35 26.15 -2.8 24.3 -2.0 23.35 -1.65 23.7 -0.55 24.05 0.55 23.6 1.4 23.15 2.2 21.7 1.8 L19.25 1.5 19.25 2.3 Q19.45 2.45 19.45 3.2 L19.15 4.2 18.0 4.4 17.95 4.4 Q17.35 4.35 15.55 3.4 L15.2 3.2 14.1 2.65 13.7 2.45 13.6 2.4 13.55 2.4 13.35 2.3 10.35 1.65 9.2 1.1" fill="#f2eaea" fill-rule="evenodd" stroke="none"/>
    <path d="M44.5 -16.2 L39.15 -15.9 Q33.0 -14.45 23.35 -9.05 L20.95 -7.7 20.8 -7.6 13.0 -2.8 14.35 -2.45 Q16.65 -2.1 17.95 -0.15 17.55 -0.2 17.2 -0.4 L11.0 -0.2 9.2 1.1 Q7.5 2.8 7.65 5.65 7.95 10.55 11.25 13.9 14.15 16.9 18.15 16.1 19.4 16.0 20.4 15.0 L21.8 13.3 22.95 9.5 22.95 8.95 22.9 8.2 24.05 8.15 24.35 8.5 24.35 10.0 25.05 9.1 25.85 8.15 Q28.15 5.3 30.55 2.75 L30.85 2.45 31.7 1.55 Q35.3 -2.3 38.85 -4.35 L39.15 -4.55 39.75 -4.85 39.85 -4.9 42.05 -6.0 42.1 -6.05 43.6 -6.8 42.95 -9.2 43.05 -9.2 43.45 -9.35 43.85 -9.35 44.2 -9.2 44.75 -7.9 44.95 -7.4 45.15 -7.8 45.8 -9.4 46.4 -9.45 46.25 -8.85 45.75 -6.75 45.9 -6.7 46.7 -6.6 48.0 -6.35 49.3 -6.0 49.4 -6.0 50.4 -5.8 50.45 -5.75 50.45 -5.7 50.35 -5.7 50.05 -5.75 49.95 -5.75 49.65 -5.75 49.15 -5.8 46.65 -5.65 46.35 -5.6 Q42.5 -4.95 39.15 -2.25 35.25 0.25 30.55 4.75 L25.2 12.9 Q22.45 16.75 20.0 17.5 L18.75 17.85 16.55 18.2 14.5 17.85 Q10.85 16.9 8.7 13.55 7.55 11.7 6.6 9.5 4.55 4.7 7.15 0.2 8.1 -1.4 9.7 -2.3 L17.85 -7.6 23.35 -10.85 Q26.9 -12.75 29.9 -13.8 31.5 -14.35 37.1 -16.85 L39.15 -17.45 Q42.4 -18.45 45.9 -18.15 L48.0 -18.1 Q50.75 -16.35 52.85 -14.0 L55.9 -9.85 55.6 -9.35 55.15 -9.55 54.4 -10.0 Q53.2 -10.9 51.8 -12.6 49.55 -15.3 45.75 -16.0 L44.5 -16.2 M11.4 2.75 L12.1 3.05 Q15.3 5.8 17.8 9.45 19.5 11.8 19.0 14.6 L18.7 15.15 Q16.8 15.3 15.25 14.0 10.45 9.8 10.65 3.8 L9.15 5.0 9.45 6.65 9.65 8.9 Q8.55 7.25 8.4 5.05 8.3 3.75 9.1 2.7 L9.95 2.5 10.7 2.5 Q11.05 2.55 11.4 2.75" fill="#a36a6a" fill-rule="evenodd" stroke="none"/>
    <path d="M17.95 4.4 L18.0 4.4 19.15 4.2 19.45 3.2 Q19.45 2.45 19.25 2.3 L19.25 1.5 21.7 1.8 Q23.15 2.2 23.6 1.4 24.05 0.55 23.7 -0.55 23.35 -1.65 24.3 -2.0 26.15 -2.8 29.45 -5.35 39.2 -12.8 40.7 -12.8 L41.8 -12.5 Q42.05 -12.5 42.15 -13.1 42.25 -13.75 43.6 -13.75 45.5 -13.5 45.5 -14.85 45.5 -15.45 44.65 -16.1 L44.5 -16.2 45.75 -16.0 Q49.55 -15.3 51.8 -12.6 53.2 -10.9 54.4 -10.0 L55.15 -9.55 Q54.9 -8.7 54.05 -7.65 52.6 -5.95 50.45 -5.75 L50.4 -5.8 50.55 -6.1 50.25 -6.55 49.15 -7.2 Q49.5 -8.8 49.95 -9.3 L49.6 -9.3 Q49.0 -9.3 48.15 -8.6 L47.1 -7.8 47.4 -9.6 Q47.5 -10.8 46.8 -10.8 46.05 -10.8 45.85 -10.1 L45.3 -9.0 43.0 -11.3 Q41.4 -12.65 41.4 -11.05 L41.55 -8.25 Q41.55 -7.25 39.7 -6.7 L37.2 -5.9 33.65 -3.2 Q32.65 -2.75 30.65 -2.4 L28.05 -1.65 Q26.55 -0.9 25.75 0.3 L24.05 2.85 Q23.05 2.45 22.55 3.4 22.2 3.95 22.2 4.5 L22.5 6.8 22.2 7.65 Q21.5 8.75 20.2 8.55 L19.95 8.5 20.25 9.0 19.05 6.7 Q18.6 5.35 17.95 4.4 M45.9 -6.7 L45.75 -6.75 46.25 -8.85 46.1 -8.05 46.15 -8.15 46.2 -8.1 45.9 -6.9 45.9 -6.7 M45.15 -7.8 L44.95 -7.4 44.75 -7.9 45.15 -7.8 M43.05 -9.2 L42.95 -9.2 43.0 -9.25 43.05 -9.2 M39.75 -4.85 L39.15 -4.55 39.05 -4.55 39.75 -4.85 M21.55 10.8 L22.1 10.5 21.6 10.9 21.55 10.8 M20.6 9.55 L20.75 9.5 20.7 9.6 20.7 9.65 20.6 9.55 M-55.65 12.7 L-55.9 12.8 -55.7 12.25 -55.2 11.75 -55.0 12.0 -55.4 12.25 Q-55.6 12.3 -55.65 12.7" fill="#e0cbcb" fill-rule="evenodd" stroke="none"/>
    <path d="M9.2 1.1 L10.35 1.65 13.35 2.3 13.55 2.4 13.6 2.4 13.7 2.45 14.1 2.65 15.2 3.2 15.55 3.4 Q17.35 4.35 17.95 4.4 18.6 5.35 19.05 6.7 L20.25 9.0 19.95 8.5 20.2 8.55 Q21.5 8.75 22.2 7.65 L22.5 6.8 22.2 4.5 Q22.2 3.95 22.55 3.4 23.05 2.45 24.05 2.85 L25.75 0.3 Q26.55 -0.9 28.05 -1.65 L30.65 -2.4 Q32.65 -2.75 33.65 -3.2 L37.2 -5.9 39.7 -6.7 Q41.55 -7.25 41.55 -8.25 L41.4 -11.05 Q41.4 -12.65 43.0 -11.3 L45.3 -9.0 45.85 -10.1 Q46.05 -10.8 46.8 -10.8 47.5 -10.8 47.4 -9.6 L47.1 -7.8 48.15 -8.6 Q49.0 -9.3 49.6 -9.3 L49.95 -9.3 Q49.5 -8.8 49.15 -7.2 L50.25 -6.55 50.55 -6.1 50.4 -5.8 49.4 -6.0 49.3 -6.0 48.0 -6.35 46.7 -6.6 45.9 -6.7 45.9 -6.9 46.2 -8.1 46.15 -8.15 46.1 -8.05 46.25 -8.85 46.4 -9.45 45.8 -9.4 45.15 -7.8 44.75 -7.9 44.2 -9.2 43.85 -9.35 43.45 -9.35 43.05 -9.2 43.0 -9.25 42.95 -9.2 43.6 -6.8 42.1 -6.05 42.05 -6.0 39.85 -4.9 39.75 -4.85 39.05 -4.55 39.15 -4.55 38.85 -4.35 Q35.3 -2.3 31.7 1.55 L30.85 2.45 30.55 2.75 Q28.15 5.3 25.85 8.15 L25.05 9.1 24.35 10.0 24.35 8.5 24.05 8.15 22.9 8.2 22.95 8.95 22.95 9.5 21.8 13.3 20.4 15.0 Q19.4 16.0 18.15 16.1 14.15 16.9 11.25 13.9 7.95 10.55 7.65 5.65 7.5 2.8 9.2 1.1 M46.35 -5.6 L46.65 -5.65 49.15 -5.8 49.65 -5.75 49.95 -5.75 50.05 -5.75 50.35 -5.7 50.4 -5.5 Q50.4 -5.15 48.3 -2.9 46.15 -0.6 45.75 -0.6 44.4 -0.6 44.4 -2.4 44.4 -4.15 45.4 -5.4 L46.35 -5.6 M20.6 9.55 L20.7 9.65 20.7 9.6 20.75 9.5 20.6 9.55 M21.55 10.8 L21.6 10.9 22.1 10.5 21.55 10.8 M11.4 2.75 Q11.05 2.55 10.7 2.5 L9.95 2.5 9.1 2.7 Q8.3 3.75 8.4 5.05 8.55 7.25 9.65 8.9 L9.45 6.65 9.15 5.0 10.65 3.8 Q10.45 9.8 15.25 14.0 16.8 15.3 18.7 15.15 L19.0 14.6 Q19.5 11.8 17.8 9.45 15.3 5.8 12.1 3.05 L11.4 2.75" fill="#cca9a9" fill-rule="evenodd" stroke="none"/>
    <path d="M50.45 -5.7 L50.45 -5.75 50.6 -5.7 50.45 -5.7" fill="#666666" fill-rule="evenodd" stroke="none"/>
  </g>
</svg>
